X: 34499
T: Righin Aluin Aribhinn Og
R: barndance
M: 4/4
K: Cmajor
GA/B/|c2 cd B2 AG|AcAG E2 DE|GEDC C2 DE|GEGA c2 GA/B/|
c2 (3edc B2 AG|AcAG E2 DE|GEDC C2 DE|GEGA c2||
A2|cAcd e2 E2|efed e2 A2|c2 ed c2 B2|BAAG G2 z2|
cdec BcdB|AGAc A2 GE|GEDC C2 DE|GEGA c4||

